X:64
T:Smiling Bride, The
R:jig
C:Charlie Lennon
D:De Dannan: Ballroom
Z:id:hn-jig-64
M:6/8
K:D
~E3 FDD | FEE cde | dcA GEA, |1 CDE GAG | ~E3 FDD | FEE cde | dcA GEC |
EDC D3 :|2 CDE GAB | cAG EFG | FDF ~G3 | AdB cAG | EDC D2g ||
|: ~f3 fdA | dfa agf | ~e3 ecA | cde gag |1 ~f3 fdA | dfa afd |
cde gab | aec d2g :|2 fga bag | fge dAF | GAB Ace | dgf ecA || 

